apps/web/public/image/games/soon.svg

<svg xmlns="http://www.w3.org/2000/svg" width="400" height="300" fill="none"><path fill="#DCB8FF" d="M118.176 148.432q0-3.72 2.472-6.192t6.192-2.472q1.896 0 3.96.696 1.104.36 1.8 1.08.696.696.696 1.584v2.064h-2.232v-1.32q0-.72-.744-1.176-1.272-.864-3.384-.864-2.76 0-4.512 1.824-1.776 1.848-1.776 4.68 0 3.024 1.824 4.944 1.848 1.92 4.608 1.92.768 0 1.656-.144a5.6 5.6 0 0 0 1.728-.648q.84-.48.84-1.2v-1.32h2.232v2.064q0 .864-.672 1.56t-1.776 1.056q-2.136.72-4.152.72-3.816 0-6.288-2.544t-2.472-6.312m24.195 8.856q-2.76 0-4.656-1.824t-1.896-4.56 1.896-4.536 4.656-1.8 4.656 1.8 1.896 4.536q0 2.712-1.92 4.56-1.896 1.824-4.632 1.824m-4.176-6.384q0 1.872 1.2 3.144 1.224 1.224 2.976 1.224 1.728 0 2.952-1.248t1.224-3.12-1.224-3.096-2.952-1.224q-1.752 0-2.976 1.224-1.2 1.248-1.2 3.096m18.89 6.096h-6.144v-1.8h1.896v-8.04q0-.504-.528-.504h-1.488v-1.8h2.736q1.536 0 1.536 1.344v.624l-.072.696h.048q.456-1.128 1.704-2.04t2.616-.912q2.928 0 3.552 2.856h.048q.528-1.224 1.728-2.04a4.56 4.56 0 0 1 2.616-.816q3.96 0 3.96 4.656v5.976h1.92v1.8h-4.248v-7.272q0-1.536-.48-2.28-.456-.768-1.656-.768-1.632 0-2.616 1.416-.96 1.392-.96 3.312v3.792h1.896v1.8h-4.224v-7.272q0-1.56-.456-2.304t-1.656-.744q-1.632 0-2.64 1.464t-1.008 3.36v3.696h1.92zm22.152-14.568h-2.448v-2.376h2.448zM181.085 157h-6.144v-1.8h1.896v-8.544h-2.016v-1.8h4.344V155.2h1.92zm8.063 0h-6.144v-1.8h1.896v-8.016q0-.528-.528-.528h-1.488v-1.8h2.736q1.536 0 1.536 1.344v.624l-.072.696h.048q.312-.744 1.272-1.704 1.344-1.248 3.456-1.248 2.064 0 3.048 1.152.984 1.128.984 3.504v5.976h1.92v1.8h-4.248v-7.248q0-1.56-.504-2.304-.48-.744-1.776-.744-1.776 0-2.928 1.392-1.128 1.392-1.128 3.264v3.84h1.92zm11.386 4.032.768-1.776q1.488.816 3.336.816 1.776 0 2.808-.864t1.032-2.592v-.96l.072-.768h-.048q-1.176 1.968-3.648 1.968-2.496 0-3.96-1.752t-1.464-4.464q0-2.664 1.416-4.368 1.44-1.704 3.912-1.704 1.32 0 2.376.528 1.08.504 1.56 1.464h.048a2.4 2.4 0 0 1-.048-.48q0-1.224 1.392-1.224h2.592v1.8h-1.344q-.528 0-.528.48v9.36q0 1.44-.528 2.544-.504 1.104-1.392 1.728a6.3 6.3 0 0 1-1.944.96 8 8 0 0 1-2.256.312q-2.136 0-4.152-1.008m4.776-6.192q1.488 0 2.352-1.008.864-1.032.864-3.168 0-4.08-3.432-4.08-1.56 0-2.424 1.08-.864 1.056-.864 2.928 0 1.92.936 3.096.96 1.152 2.568 1.152m15.072-.456v-1.296h2.04v.792q0 .696.816 1.104t1.968.408q1.08 0 1.752-.408.696-.432.696-1.152 0-.744-.576-1.128-.552-.408-2.112-.96l-.336-.12a11 11 0 0 1-2.544-1.248q-1.248-.864-1.248-2.448 0-1.656 1.344-2.496 1.32-.864 3.144-.864 1.488 0 2.856.624 1.344.624 1.344 1.824v1.464h-2.04v-.792q0-.552-.624-.888-.624-.36-1.512-.36-.936 0-1.56.408-.6.384-.6 1.056 0 .792.864 1.32.744.432 1.944.816 1.632.528 2.664 1.2 1.344.864 1.344 2.472 0 1.656-1.368 2.64-1.368.936-3.504.936-1.8 0-3.288-.768-1.464-.792-1.464-2.136m18.107 2.904q-2.76 0-4.656-1.824t-1.896-4.56 1.896-4.536 4.656-1.8 4.656 1.8 1.896 4.536q0 2.712-1.92 4.56-1.896 1.824-4.632 1.824m-4.176-6.384q0 1.872 1.2 3.144 1.224 1.224 2.976 1.224 1.728 0 2.952-1.248t1.224-3.12-1.224-3.096-2.952-1.224q-1.752 0-2.976 1.224-1.2 1.248-1.2 3.096m19.199 6.384q-2.76 0-4.656-1.824t-1.896-4.56 1.896-4.536 4.656-1.8 4.656 1.8 1.896 4.536q0 2.712-1.92 4.56-1.896 1.824-4.632 1.824m-4.176-6.384q0 1.872 1.2 3.144 1.224 1.224 2.976 1.224 1.728 0 2.952-1.248t1.224-3.12-1.224-3.096-2.952-1.224q-1.752 0-2.976 1.224-1.2 1.248-1.2 3.096m18.89 6.096h-6.144v-1.8h1.896v-8.016q0-.528-.528-.528h-1.488v-1.8h2.736q1.536 0 1.536 1.344v.624l-.072.696h.048q.312-.744 1.272-1.704 1.344-1.248 3.456-1.248 2.064 0 3.048 1.152.984 1.128.984 3.504v5.976h1.92v1.8h-4.248v-7.248q0-1.56-.504-2.304-.48-.744-1.776-.744-1.776 0-2.928 1.392-1.128 1.392-1.128 3.264v3.84h1.92z"/></svg>

<svg width="400" height="300" viewBox="0 0 400 300" fill="none" xmlns="http://www.w3.org/2000/svg">
<path d="M118.176 148.432C118.176 145.952 119 143.888 120.648 142.24C122.296 140.592 124.36 139.768 126.84 139.768C128.104 139.768 129.424 140 130.8 140.464C131.536 140.704 132.136 141.064 132.6 141.544C133.064 142.008 133.296 142.536 133.296 143.128V145.192H131.064V143.872C131.064 143.392 130.816 143 130.32 142.696C129.472 142.12 128.344 141.832 126.936 141.832C125.096 141.832 123.592 142.44 122.424 143.656C121.24 144.888 120.648 146.448 120.648 148.336C120.648 150.352 121.256 152 122.472 153.28C123.704 154.56 125.24 155.2 127.08 155.2C127.592 155.2 128.144 155.152 128.736 155.056C129.328 154.944 129.904 154.728 130.464 154.408C131.024 154.088 131.304 153.688 131.304 153.208V151.888H133.536V153.952C133.536 154.528 133.312 155.048 132.864 155.512C132.416 155.976 131.824 156.328 131.088 156.568C129.664 157.048 128.28 157.288 126.936 157.288C124.392 157.288 122.296 156.44 120.648 154.744C119 153.048 118.176 150.944 118.176 148.432ZM142.371 157.288C140.531 157.288 138.979 156.68 137.715 155.464C136.451 154.248 135.819 152.728 135.819 150.904C135.819 149.08 136.451 147.568 137.715 146.368C138.979 145.168 140.531 144.568 142.371 144.568C144.211 144.568 145.763 145.168 147.027 146.368C148.291 147.568 148.923 149.08 148.923 150.904C148.923 152.712 148.283 154.232 147.003 155.464C145.739 156.68 144.195 157.288 142.371 157.288ZM138.195 150.904C138.195 152.152 138.595 153.2 139.395 154.048C140.211 154.864 141.203 155.272 142.371 155.272C143.523 155.272 144.507 154.856 145.323 154.024C146.139 153.192 146.547 152.152 146.547 150.904C146.547 149.656 146.139 148.624 145.323 147.808C144.507 146.992 143.523 146.584 142.371 146.584C141.203 146.584 140.211 146.992 139.395 147.808C138.595 148.64 138.195 149.672 138.195 150.904ZM157.085 157H150.941V155.2H152.837V147.16C152.837 146.824 152.661 146.656 152.309 146.656H150.821V144.856H153.557C154.581 144.856 155.093 145.304 155.093 146.2V146.824L155.021 147.52H155.069C155.373 146.768 155.941 146.088 156.773 145.48C157.605 144.872 158.477 144.568 159.389 144.568C161.341 144.568 162.525 145.52 162.941 147.424H162.989C163.341 146.608 163.917 145.928 164.717 145.384C165.517 144.84 166.389 144.568 167.333 144.568C169.973 144.568 171.293 146.12 171.293 149.224V155.2H173.213V157H168.965V149.728C168.965 148.704 168.805 147.944 168.485 147.448C168.181 146.936 167.629 146.68 166.829 146.68C165.741 146.68 164.869 147.152 164.213 148.096C163.573 149.024 163.253 150.128 163.253 151.408V155.2H165.149V157H160.925V149.728C160.925 148.688 160.773 147.92 160.469 147.424C160.165 146.928 159.613 146.68 158.813 146.68C157.725 146.68 156.845 147.168 156.173 148.144C155.501 149.12 155.165 150.24 155.165 151.504V155.2H157.085V157ZM179.237 142.432H176.789V140.056H179.237V142.432ZM181.085 157H174.941V155.2H176.837V146.656H174.821V144.856H179.165V155.2H181.085V157ZM189.148 157H183.004V155.2H184.9V147.184C184.9 146.832 184.724 146.656 184.372 146.656H182.884V144.856H185.62C186.644 144.856 187.156 145.304 187.156 146.2V146.824L187.084 147.52H187.132C187.34 147.024 187.764 146.456 188.404 145.816C189.3 144.984 190.452 144.568 191.86 144.568C193.236 144.568 194.252 144.952 194.908 145.72C195.564 146.472 195.892 147.64 195.892 149.224V155.2H197.812V157H193.564V149.752C193.564 148.712 193.396 147.944 193.06 147.448C192.74 146.952 192.148 146.704 191.284 146.704C190.1 146.704 189.124 147.168 188.356 148.096C187.604 149.024 187.228 150.112 187.228 151.36V155.2H189.148V157ZM200.534 161.032L201.302 159.256C202.294 159.8 203.406 160.072 204.638 160.072C205.822 160.072 206.758 159.784 207.446 159.208C208.134 158.632 208.478 157.768 208.478 156.616V155.656L208.55 154.888H208.502C207.718 156.2 206.502 156.856 204.854 156.856C203.19 156.856 201.87 156.272 200.894 155.104C199.918 153.936 199.43 152.448 199.43 150.64C199.43 148.864 199.902 147.408 200.846 146.272C201.806 145.136 203.11 144.568 204.758 144.568C205.638 144.568 206.43 144.744 207.134 145.096C207.854 145.432 208.374 145.92 208.694 146.56H208.742C208.71 146.4 208.694 146.24 208.694 146.08C208.694 145.264 209.158 144.856 210.086 144.856H212.678V146.656H211.334C210.982 146.656 210.806 146.816 210.806 147.136V156.496C210.806 157.456 210.63 158.304 210.278 159.04C209.942 159.776 209.478 160.352 208.886 160.768C208.294 161.2 207.646 161.52 206.942 161.728C206.238 161.936 205.486 162.04 204.686 162.04C203.262 162.04 201.878 161.704 200.534 161.032ZM205.31 154.84C206.302 154.84 207.086 154.504 207.662 153.832C208.238 153.144 208.526 152.088 208.526 150.664C208.526 147.944 207.382 146.584 205.094 146.584C204.054 146.584 203.246 146.944 202.67 147.664C202.094 148.368 201.806 149.344 201.806 150.592C201.806 151.872 202.118 152.904 202.742 153.688C203.382 154.456 204.238 154.84 205.31 154.84ZM220.382 154.384V153.088H222.422V153.88C222.422 154.344 222.694 154.712 223.238 154.984C223.782 155.256 224.438 155.392 225.206 155.392C225.926 155.392 226.51 155.256 226.958 154.984C227.422 154.696 227.654 154.312 227.654 153.832C227.654 153.336 227.462 152.96 227.078 152.704C226.71 152.432 226.006 152.112 224.966 151.744L224.63 151.624C223.67 151.288 222.822 150.872 222.086 150.376C221.254 149.8 220.838 148.984 220.838 147.928C220.838 146.824 221.286 145.992 222.182 145.432C223.062 144.856 224.11 144.568 225.326 144.568C226.318 144.568 227.27 144.776 228.182 145.192C229.078 145.608 229.526 146.216 229.526 147.016V148.48H227.486V147.688C227.486 147.32 227.278 147.024 226.862 146.8C226.446 146.56 225.942 146.44 225.35 146.44C224.726 146.44 224.206 146.576 223.79 146.848C223.39 147.104 223.19 147.456 223.19 147.904C223.19 148.432 223.478 148.872 224.054 149.224C224.55 149.512 225.198 149.784 225.998 150.04C227.086 150.392 227.974 150.792 228.662 151.24C229.558 151.816 230.006 152.64 230.006 153.712C230.006 154.816 229.55 155.696 228.638 156.352C227.726 156.976 226.558 157.288 225.134 157.288C223.934 157.288 222.838 157.032 221.846 156.52C220.87 155.992 220.382 155.28 220.382 154.384ZM238.489 157.288C236.649 157.288 235.097 156.68 233.833 155.464C232.569 154.248 231.937 152.728 231.937 150.904C231.937 149.08 232.569 147.568 233.833 146.368C235.097 145.168 236.649 144.568 238.489 144.568C240.329 144.568 241.881 145.168 243.145 146.368C244.409 147.568 245.041 149.08 245.041 150.904C245.041 152.712 244.401 154.232 243.121 155.464C241.857 156.68 240.313 157.288 238.489 157.288ZM234.313 150.904C234.313 152.152 234.713 153.2 235.513 154.048C236.329 154.864 237.321 155.272 238.489 155.272C239.641 155.272 240.625 154.856 241.441 154.024C242.257 153.192 242.665 152.152 242.665 150.904C242.665 149.656 242.257 148.624 241.441 147.808C240.625 146.992 239.641 146.584 238.489 146.584C237.321 146.584 236.329 146.992 235.513 147.808C234.713 148.64 234.313 149.672 234.313 150.904ZM253.512 157.288C251.672 157.288 250.12 156.68 248.856 155.464C247.592 154.248 246.96 152.728 246.96 150.904C246.96 149.08 247.592 147.568 248.856 146.368C250.12 145.168 251.672 144.568 253.512 144.568C255.352 144.568 256.904 145.168 258.168 146.368C259.432 147.568 260.064 149.08 260.064 150.904C260.064 152.712 259.424 154.232 258.144 155.464C256.88 156.68 255.336 157.288 253.512 157.288ZM249.336 150.904C249.336 152.152 249.736 153.2 250.536 154.048C251.352 154.864 252.344 155.272 253.512 155.272C254.664 155.272 255.648 154.856 256.464 154.024C257.28 153.192 257.688 152.152 257.688 150.904C257.688 149.656 257.28 148.624 256.464 147.808C255.648 146.992 254.664 146.584 253.512 146.584C252.344 146.584 251.352 146.992 250.536 147.808C249.736 148.64 249.336 149.672 249.336 150.904ZM268.226 157H262.082V155.2H263.978V147.184C263.978 146.832 263.802 146.656 263.45 146.656H261.962V144.856H264.698C265.722 144.856 266.234 145.304 266.234 146.2V146.824L266.162 147.52H266.21C266.418 147.024 266.842 146.456 267.482 145.816C268.378 144.984 269.53 144.568 270.938 144.568C272.314 144.568 273.33 144.952 273.986 145.72C274.642 146.472 274.97 147.64 274.97 149.224V155.2H276.89V157H272.642V149.752C272.642 148.712 272.474 147.944 272.138 147.448C271.818 146.952 271.226 146.704 270.362 146.704C269.178 146.704 268.202 147.168 267.434 148.096C266.682 149.024 266.306 150.112 266.306 151.36V155.2H268.226V157Z" fill="#DCB8FF"/>
</svg>
